scale-off.svg

<svg fill="currentColor" viewBox="0 0 24 24"><path d="m22.11 21.46-1.27 1.27L19.11 21H18v-1.11L12.11 14H11v-1.11l-.69-.69a7.9 7.9 0 0 0-3.22 1.48l1.37 1.38-1.41 1.41-1.37-1.37A7.94 7.94 0 0 0 4.06 19H6v2H2v-1a10 10 0 0 1 6.68-9.43L3.85 5.74 2 5V3.89L1.11 3l1.28-1.27m19.52 16.98A10 10 0 0 0 14 10.2v-2L22 5V3H6.2M12 18a1.84 1.84 0 0 0-.88.21L7.27 20l3.85 1.79A1.84 1.84 0 0 0 12 22a2 2 0 0 0 0-4"/></svg>

<svg  viewBox="0 0 24 24" fill="currentColor"><path  d="M22.11 21.46L20.84 22.73L19.11 21H18V19.89L12.11 14H11V12.89L10.31 12.2A7.92 7.92 0 0 0 7.09 13.68L8.46 15.06L7.05 16.47L5.68 15.1A7.94 7.94 0 0 0 4.06 19H6V21H2V20A10 10 0 0 1 8.68 10.57L3.85 5.74L2 5V3.89L1.11 3L2.39 1.73M21.91 18.71A10 10 0 0 0 14 10.2V8.2L22 5V3H6.2M12 18A1.84 1.84 0 0 0 11.12 18.21L7.27 20L11.12 21.79A1.84 1.84 0 0 0 12 22A2 2 0 0 0 12 18Z"/></svg>
